static/img/kroki/fee2c086c385cde184d22a7ad67c366e.svg

<?xml version="1.0" encoding="us-ascii" standalone="no"?><svg xmlns="http://www.w3.org/2000/svg" xmlns:xlink="http://www.w3.org/1999/xlink" contentStyleType="text/css" height="374px" preserveAspectRatio="none" style="width:369px;height:374px;" version="1.1" viewBox="0 0 369 374" width="369px" zoomAndPan="magnify"><defs/><g><!--class aws_ec2_security_group--><g id="elem_aws_ec2_security_group"><rect codeLine="23" fill="#3D176E" height="39.7891" id="aws_ec2_security_group" rx="2.5" ry="2.5" style="stroke:#000D19;stroke-width:0.5;" width="245" x="59" y="328.58"/><ellipse cx="74" cy="348.4745" fill="#ADD1B2" rx="11" ry="11" style="stroke:#181818;stroke-width:1.0;"/><path d="M76.9688,354.1152 Q76.3906,354.412 75.75,354.5527 Q75.1094,354.7089 74.4063,354.7089 Q71.9063,354.7089 70.5781,353.0683 Q69.2656,351.412 69.2656,348.287 Q69.2656,345.162 70.5781,343.5058 Q71.9063,341.8495 74.4063,341.8495 Q75.1094,341.8495 75.75,342.0058 Q76.4063,342.162 76.9688,342.4589 L76.9688,345.1777 Q76.3438,344.5995 75.75,344.3339 Q75.1563,344.0527 74.5313,344.0527 Q73.1875,344.0527 72.5,345.1308 Q71.8125,346.1933 71.8125,348.287 Q71.8125,350.3808 72.5,351.4589 Q73.1875,352.5214 74.5313,352.5214 Q75.1563,352.5214 75.75,352.2558 Q76.3438,351.9745 76.9688,351.3964 L76.9688,354.1152 Z " fill="#000000"/><text fill="#D9B8FF" font-family="Helvetica" font-size="17" lengthAdjust="spacing" textLength="203" x="93" y="354.3598">aws_ec2_security_group</text></g><!--class aws_resource--><g id="elem_aws_resource"><rect codeLine="26" fill="#3D176E" height="39.7891" id="aws_resource" rx="2.5" ry="2.5" style="stroke:#000D19;stroke-width:0.5;" width="155" x="7" y="167.79"/><ellipse cx="22" cy="187.6845" fill="#ADD1B2" rx="11" ry="11" style="stroke:#181818;stroke-width:1.0;"/><path d="M24.9688,193.3252 Q24.3906,193.622 23.75,193.7627 Q23.1094,193.9189 22.4063,193.9189 Q19.9063,193.9189 18.5781,192.2783 Q17.2656,190.622 17.2656,187.497 Q17.2656,184.372 18.5781,182.7158 Q19.9063,181.0595 22.4063,181.0595 Q23.1094,181.0595 23.75,181.2158 Q24.4063,181.372 24.9688,181.6689 L24.9688,184.3877 Q24.3438,183.8095 23.75,183.5439 Q23.1563,183.2627 22.5313,183.2627 Q21.1875,183.2627 20.5,184.3408 Q19.8125,185.4033 19.8125,187.497 Q19.8125,189.5908 20.5,190.6689 Q21.1875,191.7314 22.5313,191.7314 Q23.1563,191.7314 23.75,191.4658 Q24.3438,191.1845 24.9688,190.6064 L24.9688,193.3252 Z " fill="#000000"/><text fill="#D9B8FF" font-family="Helvetica" font-size="17" lengthAdjust="spacing" textLength="113" x="41" y="193.5698">aws_resource</text></g><!--class resource--><g id="elem_resource"><rect codeLine="29" fill="#3D176E" height="39.7891" id="resource" rx="2.5" ry="2.5" style="stroke:#000D19;stroke-width:0.5;" width="113" x="125" y="7"/><ellipse cx="140" cy="26.8945" fill="#ADD1B2" rx="11" ry="11" style="stroke:#181818;stroke-width:1.0;"/><path d="M142.9688,32.5352 Q142.3906,32.832 141.75,32.9727 Q141.1094,33.1289 140.4063,33.1289 Q137.9063,33.1289 136.5781,31.4883 Q135.2656,29.832 135.2656,26.707 Q135.2656,23.582 136.5781,21.9258 Q137.9063,20.2695 140.4063,20.2695 Q141.1094,20.2695 141.75,20.4258 Q142.4063,20.582 142.9688,20.8789 L142.9688,23.5977 Q142.3438,23.0195 141.75,22.7539 Q141.1563,22.4727 140.5313,22.4727 Q139.1875,22.4727 138.5,23.5508 Q137.8125,24.6133 137.8125,26.707 Q137.8125,28.8008 138.5,29.8789 Q139.1875,30.9414 140.5313,30.9414 Q141.1563,30.9414 141.75,30.6758 Q142.3438,30.3945 142.9688,29.8164 L142.9688,32.5352 Z " fill="#000000"/><text fill="#D9B8FF" font-family="Helvetica" font-size="17" lengthAdjust="spacing" textLength="71" x="159" y="32.7798">resource</text></g><!--class security_group--><g id="elem_security_group"><rect codeLine="32" fill="#3D176E" height="39.7891" id="security_group" rx="2.5" ry="2.5" style="stroke:#000D19;stroke-width:0.5;" width="165" x="197" y="167.79"/><ellipse cx="212" cy="187.6845" fill="#ADD1B2" rx="11" ry="11" style="stroke:#181818;stroke-width:1.0;"/><path d="M214.9688,193.3252 Q214.3906,193.622 213.75,193.7627 Q213.1094,193.9189 212.4063,193.9189 Q209.9063,193.9189 208.5781,192.2783 Q207.2656,190.622 207.2656,187.497 Q207.2656,184.372 208.5781,182.7158 Q209.9063,181.0595 212.4063,181.0595 Q213.1094,181.0595 213.75,181.2158 Q214.4063,181.372 214.9688,181.6689 L214.9688,184.3877 Q214.3438,183.8095 213.75,183.5439 Q213.1563,183.2627 212.5313,183.2627 Q211.1875,183.2627 210.5,184.3408 Q209.8125,185.4033 209.8125,187.497 Q209.8125,189.5908 210.5,190.6689 Q211.1875,191.7314 212.5313,191.7314 Q213.1563,191.7314 213.75,191.4658 Q214.3438,191.1845 214.9688,190.6064 L214.9688,193.3252 Z " fill="#000000"/><text fill="#D9B8FF" font-family="Helvetica" font-size="17" lengthAdjust="spacing" textLength="123" x="231" y="193.5698">security_group</text></g><!--reverse link aws_resource to aws_ec2_security_group--><g id="link_aws_resource_aws_ec2_security_group"><path codeLine="35" d="M105.582,223.2016 C124.222,253.7216 151.09,297.69 169.76,328.25 " fill="none" id="aws_resource-backto-aws_ec2_security_group" style="stroke:#FFAF37;stroke-width:2.0;"/><polygon fill="none" points="96.2,207.84,100.4615,226.3289,110.7025,220.0742,96.2,207.84" style="stroke:#FFAF37;stroke-width:2.0;"/></g><!--reverse link security_group to aws_ec2_security_group--><g id="link_security_group_aws_ec2_security_group"><path codeLine="36" d="M258.225,223.1567 C239.385,253.6767 212.23,297.69 193.36,328.25 " fill="none" id="security_group-backto-aws_ec2_security_group" style="stroke:#FFAF37;stroke-width:2.0;"/><polygon fill="none" points="267.68,207.84,253.1194,220.0051,263.3306,226.3084,267.68,207.84" style="stroke:#FFAF37;stroke-width:2.0;"/></g><!--reverse link resource to aws_resource--><g id="link_resource_aws_resource"><path codeLine="37" d="M160.418,62.4116 C141.778,92.9316 114.91,136.9 96.24,167.46 " fill="none" id="resource-backto-aws_resource" style="stroke:#FFAF37;stroke-width:2.0;"/><polygon fill="none" points="169.8,47.05,155.2975,59.2842,165.5385,65.5389,169.8,47.05" style="stroke:#FFAF37;stroke-width:2.0;"/></g><!--reverse link resource to security_group--><g id="link_resource_security_group"><path codeLine="38" d="M202.775,62.3667 C221.615,92.8867 248.77,136.9 267.64,167.46 " fill="none" id="resource-backto-security_group" style="stroke:#FFAF37;stroke-width:2.0;"/><polygon fill="none" points="193.32,47.05,197.6694,65.5184,207.8806,59.2151,193.32,47.05" style="stroke:#FFAF37;stroke-width:2.0;"/></g><!--SRC=[XP1BJyCm48Jl-HMMUgwKj88q4fSI2S6bGfHxvDZhrafYHsk7A3p-EuHIv3gFNcU-dPtTe-H0eAfjHogeSa0Jc4AgcYAjo1PHjwakDPA545IiOzzyqCfU1NQq0l88vHjOoQXFl1ubAnGOGrQETKzPSK3TA7wAjqYL-R50MOTAIshCrbgKUMF1ASEJV2E4J_gXYpMFubiOO1evu1yIXY6F4X-vkchsxdzYBz-1HExJTjh2eEPWnIyrsx8dd9A3Gy_-PCTdohbK1tBZQ2-dJgW0B_JzaNBTzhIWfN7N60i8sdOrf8Eh8Dbm4O_2JrDmmFhN4TgQ3DWgCy0QbBRBUhOc7q7mvH08HZV8mDN7jB6KY_cxp-LoER4qyAPdsP74i-HxtkGt]--></g></svg>

<svg xmlns="http://www.w3.org/2000/svg" width="369" height="374" viewBox="0 0 369 374"><rect width="245" height="39.789" x="59" y="328.58" fill="#3D176E" rx="2.5" ry="2.5" style="stroke:#000d19;stroke-width:.5"/><circle cx="74" cy="348.474" r="11" fill="#ADD1B2" style="stroke:#181818;stroke-width:1"/><path d="M76.969 354.115q-.578.297-1.219.438-.64.156-1.344.156-2.5 0-3.828-1.64-1.312-1.657-1.312-4.782t1.312-4.781q1.328-1.656 3.828-1.656.703 0 1.344.156.656.156 1.219.453v2.719q-.625-.579-1.219-.844-.594-.281-1.219-.281-1.344 0-2.031 1.078-.687 1.062-.687 3.156t.687 3.172q.688 1.062 2.031 1.062.625 0 1.219-.265.594-.281 1.219-.86z"/><text x="93" y="354.36" fill="#D9B8FF" font-family="Helvetica" font-size="17" textLength="203">aws_ec2_security_group</text><rect width="155" height="39.789" x="7" y="167.79" fill="#3D176E" rx="2.5" ry="2.5" style="stroke:#000d19;stroke-width:.5"/><circle cx="22" cy="187.685" r="11" fill="#ADD1B2" style="stroke:#181818;stroke-width:1"/><path d="M24.969 193.325q-.578.297-1.219.438-.64.156-1.344.156-2.5 0-3.828-1.64-1.312-1.657-1.312-4.782t1.312-4.781q1.328-1.656 3.828-1.656.703 0 1.344.156.656.156 1.219.453v2.719q-.625-.578-1.219-.844-.594-.281-1.219-.281-1.343 0-2.031 1.078-.687 1.062-.687 3.156t.687 3.172q.688 1.062 2.031 1.062.625 0 1.219-.265.594-.281 1.219-.86z"/><text x="41" y="193.57" fill="#D9B8FF" font-family="Helvetica" font-size="17" textLength="113">aws_resource</text><rect width="113" height="39.789" x="125" y="7" fill="#3D176E" rx="2.5" ry="2.5" style="stroke:#000d19;stroke-width:.5"/><circle cx="140" cy="26.895" r="11" fill="#ADD1B2" style="stroke:#181818;stroke-width:1"/><path d="M142.969 32.535q-.578.297-1.219.438-.64.156-1.344.156-2.5 0-3.828-1.64-1.312-1.657-1.312-4.782t1.312-4.781q1.328-1.656 3.828-1.656.703 0 1.344.156.656.156 1.219.453v2.719q-.625-.578-1.219-.844-.594-.281-1.219-.281-1.344 0-2.031 1.078-.687 1.062-.687 3.156t.687 3.172q.688 1.062 2.031 1.062.625 0 1.219-.265.594-.281 1.219-.86z"/><text x="159" y="32.78" fill="#D9B8FF" font-family="Helvetica" font-size="17" textLength="71">resource</text><rect width="165" height="39.789" x="197" y="167.79" fill="#3D176E" rx="2.5" ry="2.5" style="stroke:#000d19;stroke-width:.5"/><circle cx="212" cy="187.685" r="11" fill="#ADD1B2" style="stroke:#181818;stroke-width:1"/><path d="M214.969 193.325q-.578.297-1.219.438-.64.156-1.344.156-2.5 0-3.828-1.64-1.312-1.657-1.312-4.782t1.312-4.781q1.328-1.656 3.828-1.656.703 0 1.344.156.656.156 1.219.453v2.719q-.625-.578-1.219-.844-.594-.281-1.219-.281-1.344 0-2.031 1.078-.687 1.062-.687 3.156t.687 3.172q.688 1.062 2.031 1.062.625 0 1.219-.265.594-.281 1.219-.86z"/><text x="231" y="193.57" fill="#D9B8FF" font-family="Helvetica" font-size="17" textLength="123">security_group</text><path fill="none" d="M105.582 223.202c18.64 30.52 45.508 74.488 64.178 105.048M96.2 207.84l4.261 18.489 10.242-6.255zm162.025 15.317c-18.84 30.52-45.995 74.533-64.865 105.093m74.32-120.41-14.56 12.165 10.21 6.303zM160.418 62.412C141.778 92.932 114.91 136.9 96.24 167.46M169.8 47.05l-14.502 12.234 10.24 6.255zm32.975 15.317c18.84 30.52 45.995 74.533 64.865 105.093M193.32 47.05l4.35 18.468 10.21-6.303z" style="stroke:#ffaf37;stroke-width:2"/></svg>
